X:72
T: Der Tag, der ist so wohl vergang'n (Band 1), S. 207
N: P0847
O: Lothringen
S: PINCK, Louis: Verklingende Weisen, Bd 1, Metz 1928]
R: Liebe, Fenstergang, Beischlaf]
M: 3/8
L: 1/16
K: F
C2 | F4F2 | F4F2 | G4A2 | F4
G2 | G2A2c2 | B4G2 | F4A2 | G4
F2 | G2A2B2 | c2c2c2 | A2F2AA | G2F2
F2 | c2c2c2 | A2F2F2 | C2D2E2 | F4

@@@ Tune index: 7622
